FLSCLRV2.cube
# Copyright: (C) Copyright 2010-2017 by IWLTBAP SAS
# Cannot be resold, shared or otherwise redistributed
# Website: https://luts.iwltbap.com
TITLE "False Color V2 (Rec.709)"
LUT_3D_SIZE 33
0.153534 0.078735 0.159454
0.158447 0.087555 0.169708
0.158508 0.099854 0.184418
0.155884 0.114227 0.201569
0.151093 0.130524 0.220917
0.146576 0.147034 0.240204
0.143188 0.163361 0.258789
0.141876 0.179077 0.275909
0.144989 0.192505 0.289490
0.155823 0.203644 0.299255
0.171387 0.212952 0.305695
0.186951 0.221069 0.309967
0.202515 0.228546 0.312500
0.218079 0.235168 0.313751
0.233643 0.241699 0.314301
0.253693 0.247955 0.314606
0.275391 0.254364 0.315247
0.297699 0.261414 0.316803
0.320587 0.269226 0.319366
0.345154 0.278320 0.322662
0.370758 0.287689 0.326141
0.397400 0.296997 0.329529
0.425201 0.305847 0.332428
0.453308 0.313263 0.332642
0.482208 0.319000 0.332642
0.510986 0.322235 0.332642
0.540070 0.322388 0.331268
0.572052 0.317932 0.326569
0.605743 0.309937 0.320557
0.640900 0.299408 0.313141
0.675446 0.288239 0.304810
0.708710 0.277527 0.295563
0.740021 0.268402 0.285278
0.127808 0.115082 0.183960
0.125244 0.129395 0.201111
0.121033 0.145233 0.219910
0.115967 0.162170 0.239716
0.112518 0.178497 0.258331
0.111145 0.194244 0.275513
0.114105 0.207733 0.289185
0.124695 0.218689 0.298828
0.140259 0.228271 0.305573
0.155823 0.236450 0.309875
0.171387 0.243927 0.312439
0.186951 0.250580 0.313721
0.202515 0.256927 0.314270
0.222412 0.263336 0.314606
0.244110 0.269745 0.315216
0.266388 0.276794 0.316742
0.289246 0.284576 0.319275
0.313538 0.293396 0.322479
0.339355 0.303009 0.326050
0.365967 0.312317 0.329437
0.393402 0.320984 0.332306
0.421844 0.328644 0.332642
0.450409 0.334320 0.332642
0.479492 0.337738 0.332642
0.508545 0.338013 0.331360
0.540009 0.333832 0.326843
0.574127 0.325745 0.320740
0.608765 0.315521 0.313538
0.643829 0.304108 0.305023
0.677124 0.293365 0.295807
0.708160 0.284393 0.285797
0.736053 0.278381 0.274933
0.759064 0.277344 0.263855
0.090454 0.160339 0.219360
0.085876 0.176849 0.238678
0.081848 0.193665 0.257874
0.080811 0.209045 0.274719
0.083252 0.222961 0.288879
0.093567 0.234009 0.298615
0.109131 0.243378 0.305298
0.124695 0.251801 0.309753
0.140259 0.259125 0.312347
0.155823 0.265961 0.313690
0.171387 0.272339 0.314270
0.190979 0.278564 0.314575
0.212799 0.285126 0.315216
0.234924 0.291992 0.316620
0.257904 0.299927 0.319214
0.282166 0.308746 0.322388
0.307648 0.318085 0.325867
0.334534 0.327637 0.329315
0.361969 0.336334 0.332245
0.390411 0.344025 0.332642
0.418915 0.349762 0.332642
0.447693 0.353210 0.332642
0.477051 0.353638 0.331482
0.508453 0.349548 0.326996
0.542511 0.341553 0.320923
0.577118 0.331390 0.313751
0.611694 0.320251 0.305481
0.645569 0.309174 0.296082
0.676666 0.300140 0.286072
0.704651 0.294037 0.275208
0.727783 0.292908 0.264160
0.744263 0.296692 0.251312
0.755554 0.306427 0.233948
0.051239 0.208801 0.257385
0.050079 0.224243 0.274292
0.052673 0.237885 0.288239
0.062439 0.249298 0.298431
0.078003 0.258728 0.305145
0.093567 0.267181 0.309692
0.109131 0.274506 0.312317
0.124695 0.281189 0.313629
0.140259 0.287720 0.314240
0.159698 0.293976 0.314575
0.181519 0.300537 0.315186
0.203613 0.307343 0.316589
0.226379 0.315033 0.319061
0.250793 0.324066 0.322296
0.276245 0.333405 0.325775
0.303101 0.342957 0.329254
0.330505 0.351685 0.332184
0.358582 0.359253 0.332642
0.387451 0.365204 0.332642
0.416199 0.368713 0.332642
0.445526 0.369232 0.331573
0.476868 0.365265 0.327118
0.510376 0.357605 0.321259
0.545502 0.347229 0.313965
0.580078 0.336121 0.305725
0.613983 0.325012 0.296326
0.645172 0.315918 0.286377
0.673004 0.309814 0.275787
0.696533 0.308472 0.264465
0.713135 0.312073 0.251709
0.724640 0.321686 0.234436
0.730835 0.334900 0.215057
0.734192 0.350433 0.194855
0.021820 0.253113 0.287933
0.031311 0.264343 0.297974
0.046875 0.274048 0.304993
0.062439 0.282318 0.309509
0.078003 0.289886 0.312256
0.093567 0.296600 0.313629
0.109131 0.302948 0.314240
0.128418 0.309387 0.314575
0.150055 0.315765 0.315125
0.172302 0.322723 0.316528
0.195038 0.330383 0.318970
0.219177 0.339142 0.322144
0.244873 0.348724 0.325684
0.271393 0.358032 0.329071
0.299072 0.367035 0.332123
0.327118 0.374634 0.332642
0.355621 0.380524 0.332642
0.384735 0.384216 0.332642
0.413666 0.384888 0.331757
0.445312 0.380981 0.327240
0.478760 0.373383 0.321411
0.513367 0.363373 0.314362
0.548462 0.351959 0.305969
0.581970 0.341125 0.296814
0.613678 0.331696 0.286652
0.641602 0.325500 0.276062
0.665131 0.324036 0.265045
0.682007 0.327454 0.252106
0.693878 0.336639 0.235413
0.699982 0.350067 0.215576
0.703400 0.365570 0.195374
0.705688 0.381989 0.175842
0.708374 0.398254 0.158234
0.015747 0.289368 0.304840
0.031311 0.297699 0.309418
0.046875 0.305054 0.312164
0.062439 0.311981 0.313599
0.078003 0.318359 0.314240
0.097137 0.324768 0.314545
0.118744 0.331146 0.315125
0.140839 0.337921 0.316437
0.163666 0.345734 0.318909
0.187805 0.354462 0.322052
0.213470 0.364014 0.325592
0.239960 0.373383 0.328979
0.267303 0.382172 0.331970
0.295654 0.390015 0.332642
0.324158 0.395966 0.332642
0.353271 0.399719 0.332642
0.382141 0.400482 0.331848
0.413269 0.396851 0.327515
0.447144 0.389191 0.321625
0.481720 0.379211 0.314575
0.516846 0.367828 0.306183
0.550415 0.356964 0.297058
0.581787 0.347656 0.287170
0.610199 0.341187 0.276367
0.633850 0.339600 0.265350
0.650879 0.342865 0.252502
0.662933 0.351898 0.235901
0.669434 0.364868 0.216675
0.672607 0.380707 0.195892
0.674927 0.397125 0.176331
0.677551 0.413452 0.158661
0.683075 0.427216 0.145569
0.692963 0.437347 0.138245
0.015747 0.320435 0.312103
0.031311 0.327362 0.313568
0.046875 0.333771 0.314209
0.065704 0.339996 0.314545
0.087463 0.346527 0.315094
0.109528 0.353302 0.316376
0.132355 0.361084 0.318817
0.156433 0.369781 0.321960
0.181793 0.379089 0.325378
0.208527 0.388702 0.328918
0.235870 0.397491 0.331909
0.264191 0.405396 0.332642
0.292694 0.411407 0.332642
0.321442 0.415161 0.332642
0.350647 0.416077 0.331940
0.381714 0.412567 0.327667
0.415527 0.404999 0.321777
0.450104 0.395050 0.314758
0.484741 0.384003 0.306641
0.518799 0.372803 0.297302
0.550262 0.363434 0.287445
0.578796 0.356842 0.276642
0.602570 0.355164 0.265625
0.619751 0.358093 0.253265
0.631989 0.367157 0.236359
0.638580 0.380066 0.217194
0.641815 0.395874 0.196442
0.644165 0.412262 0.176819
0.647034 0.428192 0.159454
0.652161 0.442444 0.145844
0.661926 0.452698 0.138336
0.677765 0.457520 0.138275
0.699005 0.457520 0.148285
0.015747 0.349152 0.314209
0.034424 0.355377 0.314514
0.056000 0.361755 0.315063
0.078247 0.368683 0.316345
0.100800 0.376221 0.318695
0.125061 0.385101 0.321869
0.150391 0.394409 0.325287
0.176788 0.403778 0.328735
0.204407 0.412842 0.331848
0.232391 0.420593 0.332642
0.261200 0.426819 0.332642
0.289948 0.430664 0.332642
0.318817 0.431702 0.332123
0.350128 0.428284 0.327789
0.383423 0.421021 0.322113
0.418457 0.410919 0.314972
0.453125 0.399841 0.306885
0.486786 0.388916 0.297821
0.518768 0.379211 0.287720
0.547119 0.372650 0.277222
0.571289 0.370728 0.265930
0.588623 0.373474 0.253632
0.601227 0.382141 0.237335
0.607758 0.395264 0.217712
0.611389 0.410553 0.197510
0.613373 0.427399 0.177307
0.616211 0.443359 0.159882
0.621490 0.457336 0.146393
0.630859 0.468048 0.138458
0.646545 0.473083 0.138153
0.667694 0.473083 0.147919
0.692200 0.471436 0.166138
0.719666 0.466248 0.190369
0.024689 0.377136 0.315033
0.046936 0.384064 0.316284
0.069489 0.391571 0.318604
0.093445 0.400208 0.321686
0.118988 0.409729 0.325195
0.145386 0.419098 0.328644
0.172974 0.428192 0.331757
0.200928 0.435974 0.332642
0.229401 0.442108 0.332642
0.258484 0.446167 0.332642
0.287323 0.447266 0.332214
0.318573 0.444000 0.327911
0.351807 0.436829 0.322296
0.386322 0.427032 0.315369
0.421478 0.415710 0.307098
0.455200 0.404755 0.298096
0.487244 0.394989 0.287964
0.515686 0.388336 0.277496
0.539856 0.386292 0.266510
0.557495 0.388885 0.254028
0.570282 0.397430 0.237793
0.576904 0.410431 0.218231
0.580597 0.425690 0.198029
0.582947 0.442078 0.178314
0.585419 0.458527 0.160278
0.590576 0.472595 0.146698
0.599823 0.483398 0.138580
0.615356 0.488647 0.138062
0.636169 0.488647 0.147156
0.660797 0.487091 0.165588
0.688202 0.481995 0.189667
0.718323 0.474731 0.217926
0.749847 0.466461 0.246216
0.038147 0.406921 0.318542
0.062073 0.415527 0.321594
0.087585 0.425049 0.325104
0.113953 0.434418 0.328552
0.141205 0.443298 0.331635
0.169495 0.451355 0.332642
0.197937 0.457550 0.332642
0.227020 0.461670 0.332642
0.255829 0.462860 0.332306
0.286560 0.459839 0.328186
0.320190 0.452606 0.322449
0.354675 0.442871 0.315552
0.389374 0.431854 0.307556
0.423615 0.420593 0.298340
0.455353 0.411011 0.288513
0.484253 0.404053 0.277771
0.508575 0.401855 0.266815
0.526367 0.404144 0.254761
0.539307 0.412720 0.238251
0.546326 0.425262 0.219269
0.549805 0.440857 0.198547
0.552155 0.457214 0.178802
0.554901 0.473267 0.161133
0.559662 0.487823 0.146973
0.568878 0.498535 0.138824
0.584137 0.504211 0.137970
0.604858 0.504211 0.146790
0.629120 0.502869 0.164459
0.656708 0.497711 0.188995
0.686401 0.490723 0.216431
0.718292 0.482239 0.245483
0.750946 0.473419 0.271942
0.784210 0.464661 0.293945
0.055939 0.440125 0.324921
0.082520 0.449738 0.328461
0.109772 0.458649 0.331543
0.137695 0.466522 0.332642
0.166443 0.472961 0.332642
0.195160 0.477051 0.332642
0.224335 0.478424 0.332397
0.255005 0.475555 0.328308
0.288086 0.468628 0.322784
0.323059 0.458740 0.315765
0.357758 0.447723 0.307770
0.392029 0.436432 0.298584
0.423828 0.426819 0.288788
0.452545 0.419861 0.278320
0.477264 0.417419 0.267120
0.495239 0.419556 0.255157
0.508362 0.428009 0.238708
0.515472 0.440460 0.219818
0.519318 0.455566 0.199615
0.521393 0.472351 0.179321
0.524109 0.488434 0.161560
0.528778 0.503052 0.147278
0.537842 0.513855 0.138947
0.552856 0.519775 0.137787
0.573547 0.519775 0.146454
0.597748 0.518524 0.163910
0.625244 0.513428 0.188293
0.654877 0.506470 0.215698
0.686279 0.498260 0.244019
0.719360 0.489197 0.271301
0.752625 0.480438 0.293427
0.786346 0.472260 0.308868
0.819672 0.465179 0.312958
0.078308 0.473999 0.331482
0.106232 0.481903 0.332642
0.134979 0.488403 0.332642
0.163696 0.492554 0.332642
0.192505 0.494019 0.332581
0.223450 0.491241 0.328430
0.256500 0.484406 0.322937
0.291412 0.474579 0.315948
0.326111 0.463593 0.307983
0.359985 0.452545 0.299072
0.392303 0.442596 0.289032
0.421112 0.435577 0.278625
0.445984 0.432983 0.267395
0.464111 0.434967 0.255493
0.477539 0.443024 0.239655
0.484619 0.455658 0.220337
0.488556 0.470703 0.200165
0.490601 0.487488 0.179810
0.493286 0.503601 0.161987
0.498108 0.517944 0.147888
0.506836 0.529205 0.139069
0.521729 0.535278 0.137787
0.542236 0.535339 0.146088
0.566345 0.534210 0.163361
0.593445 0.529327 0.186920
0.623352 0.522247 0.214935
0.654724 0.514038 0.243286
0.687775 0.505005 0.270660
0.721008 0.496216 0.292938
0.754303 0.488220 0.308289
0.788025 0.480957 0.312958
0.824738 0.471924 0.310211
0.864990 0.460938 0.298767
0.103180 0.503662 0.332642
0.132233 0.508026 0.332642
0.161041 0.509583 0.332642
0.191437 0.507050 0.328674
0.224884 0.500183 0.323090
0.259277 0.490692 0.316345
0.294495 0.479431 0.308228
0.328369 0.468384 0.299316
0.360413 0.458618 0.289581
0.389709 0.451263 0.278900
0.414520 0.448547 0.267975
0.432983 0.450409 0.255859
0.446564 0.458313 0.240112
0.454041 0.470490 0.221375
0.457764 0.485870 0.200684
0.460175 0.502167 0.180847
0.462463 0.518768 0.162415
0.467224 0.533173 0.148193
0.475922 0.544312 0.139374
0.490601 0.550751 0.137787
0.510742 0.550903 0.145416
0.534943 0.549866 0.162811
0.561951 0.545044 0.186249
0.591431 0.538208 0.213470
0.623169 0.529846 0.242523
0.655731 0.521027 0.269318
0.689423 0.512024 0.292419
0.722717 0.503967 0.308014
0.755890 0.496948 0.312958
0.792999 0.487762 0.310425
0.832550 0.477112 0.299469
0.874207 0.465515 0.283386
0.915192 0.454712 0.265564
0.129578 0.525146 0.332642
0.159882 0.522736 0.328796
0.193268 0.515961 0.323242
0.227661 0.506531 0.316528
0.262390 0.495575 0.308655
0.296783 0.484222 0.299561
0.328888 0.474396 0.289825
0.358276 0.466980 0.279175
0.383179 0.464111 0.268280
0.401855 0.465698 0.256561
0.415588 0.473602 0.240570
0.423157 0.485687 0.221893
0.426971 0.501007 0.201233
0.429413 0.517303 0.181335
0.431976 0.533508 0.163269
0.436340 0.548370 0.148499
0.444885 0.559631 0.139526
0.459473 0.566223 0.137787
0.479431 0.566467 0.145081
0.503296 0.565613 0.161743
0.530518 0.560760 0.185577
0.559906 0.553986 0.212708
0.591614 0.545624 0.241791
0.624146 0.536835 0.268677
0.657349 0.528046 0.291412
0.691132 0.519714 0.307709
0.724274 0.512695 0.312958
0.761261 0.503571 0.310638
0.800751 0.492950 0.299835
0.841736 0.481689 0.284302
0.883423 0.470551 0.266022
0.922913 0.461243 0.248596
0.959991 0.454407 0.233673
0.161194 0.531982 0.323578
0.196014 0.522369 0.316711
0.230743 0.511444 0.308868
0.265198 0.500061 0.299805
0.297333 0.490204 0.290100
0.326538 0.482849 0.279755
0.351868 0.479675 0.268555
0.370728 0.481140 0.256927
0.384613 0.488892 0.241028
0.392303 0.500885 0.222382
0.396484 0.515717 0.202301
0.398621 0.532440 0.181854
0.401184 0.548645 0.163696
0.405457 0.563599 0.148834
0.413879 0.574951 0.139679
0.428345 0.581604 0.137787
0.448151 0.582031 0.144745
0.471893 0.581268 0.161194
0.499054 0.576477 0.184906
0.528381 0.569733 0.211975
0.559601 0.561646 0.240326
0.592560 0.552612 0.268005
0.625763 0.543823 0.290894
0.659058 0.535706 0.307068
0.692627 0.528473 0.312958
0.728943 0.519653 0.311005
0.768951 0.508820 0.300201
0.809937 0.497528 0.284729
0.850952 0.486664 0.266998
0.891205 0.477020 0.249023
0.927856 0.470215 0.234314
0.960510 0.469849 0.224762
0.986816 0.469849 0.224396
0.199097 0.527313 0.309082
0.233154 0.516205 0.300293
0.265808 0.506012 0.290375
0.295074 0.498535 0.280029
0.320374 0.495239 0.269165
0.339600 0.496582 0.257263
0.353760 0.503937 0.241943
0.361420 0.516083 0.222900
0.365692 0.530884 0.202820
0.368225 0.547119 0.182861
0.370392 0.563812 0.164154
0.374817 0.578461 0.149475
0.382904 0.590240 0.139832
0.397217 0.597046 0.137787
0.416687 0.597595 0.144104
0.440521 0.596924 0.160645
0.467255 0.592346 0.183563
0.496887 0.585480 0.211243
0.528046 0.577423 0.239594
0.560516 0.568665 0.266663
0.594177 0.559631 0.290344
0.627472 0.551483 0.306763
0.661011 0.544220 0.312958
0.697235 0.535492 0.311188
0.736542 0.524963 0.300903
0.778137 0.513397 0.285187
0.819183 0.502472 0.267487
0.859467 0.492798 0.249451
0.896240 0.485931 0.234619
0.928650 0.485413 0.225067
0.955475 0.485413 0.224396
0.972595 0.491821 0.231964
0.986145 0.506134 0.250702
0.233856 0.522034 0.290894
0.263641 0.514252 0.280304
0.289032 0.510803 0.269440
0.308472 0.512024 0.257629
0.322784 0.519226 0.242401
0.330811 0.530945 0.223938
0.334900 0.546021 0.203339
0.337433 0.562256 0.183380
0.339569 0.578979 0.164581
0.343933 0.593658 0.149811
0.352020 0.605316 0.140167
0.366089 0.612518 0.137787
0.385406 0.613159 0.143799
0.409119 0.612549 0.160126
0.435791 0.608063 0.182892
0.464996 0.601440 0.209747
0.496490 0.593201 0.238831
0.528931 0.584473 0.265961
0.562592 0.575409 0.289795
0.595886 0.567230 0.306458
0.628937 0.560181 0.312958
0.665527 0.551331 0.311371
0.704742 0.540802 0.301239
0.746338 0.529236 0.285645
0.787384 0.518311 0.267944
0.827118 0.508820 0.250336
0.864594 0.501617 0.234955
0.897156 0.500977 0.225220
0.924164 0.500977 0.224396
0.941467 0.507111 0.231598
0.955383 0.520813 0.249542
0.961487 0.539825 0.275116
0.964111 0.561523 0.304108
0.257721 0.526367 0.269745
0.277344 0.527344 0.258301
0.291779 0.534546 0.242828
0.299927 0.546143 0.224457
0.304413 0.560791 0.204437
0.306671 0.577362 0.183899
0.309113 0.593689 0.165497
0.313080 0.608887 0.150146
0.321045 0.620636 0.140320
0.334961 0.627869 0.137787
0.354095 0.628723 0.143524
0.377502 0.628296 0.159119
0.404358 0.623779 0.182220
0.433441 0.617218 0.209015
0.464508 0.609222 0.237366
0.497345 0.600250 0.265289
0.530518 0.591431 0.288727
0.564301 0.583008 0.306122
0.597290 0.575928 0.312958
0.633240 0.567383 0.311707
0.672974 0.556671 0.301575
0.713837 0.545410 0.286530
0.755615 0.534149 0.268402
0.795410 0.524597 0.250763
0.832458 0.517487 0.235657
0.865662 0.516541 0.225403
0.892609 0.516541 0.224396
0.910339 0.522369 0.231232
0.924408 0.535950 0.248962
0.930939 0.554291 0.273682
0.933350 0.576508 0.303314
0.934174 0.599792 0.333649
0.934570 0.623810 0.363251
0.260925 0.549622 0.243744
0.269043 0.561371 0.224976
0.273590 0.575928 0.204956
0.275879 0.592499 0.184418
0.278320 0.608826 0.165924
0.282471 0.623718 0.150787
0.290039 0.635925 0.140503
0.303833 0.643311 0.137787
0.322815 0.644287 0.143219
0.346130 0.643921 0.158600
0.372559 0.639618 0.180908
0.401947 0.632965 0.208282
0.432953 0.625000 0.236633
0.465790 0.616058 0.264618
0.498901 0.607208 0.288177
0.532227 0.598969 0.305420
0.565704 0.591675 0.312958
0.601501 0.583221 0.311890
0.641205 0.572540 0.301910
0.682037 0.561279 0.286957
0.723145 0.550262 0.269379
0.763672 0.540375 0.251221
0.800781 0.533203 0.235992
0.834137 0.532104 0.225586
0.861267 0.532104 0.224396
0.879211 0.537415 0.230530
0.893463 0.551086 0.248413
0.900116 0.569336 0.272949
0.902588 0.591461 0.302551
0.903442 0.614746 0.332825
0.904175 0.638184 0.361816
0.906464 0.660614 0.387054
0.912872 0.679199 0.404388
0.242798 0.591095 0.205505
0.245453 0.607208 0.185425
0.247528 0.623993 0.166382
0.251617 0.638947 0.151154
0.259064 0.651245 0.140686
0.272705 0.658752 0.137787
0.291382 0.659851 0.142639
0.314758 0.659576 0.158081
0.341125 0.655334 0.180237
0.370422 0.648743 0.207550
0.401398 0.640808 0.235870
0.433716 0.632080 0.263275
0.467316 0.623016 0.287628
0.500641 0.614716 0.305054
0.534088 0.607422 0.312958
0.569794 0.599030 0.312042
0.608765 0.588654 0.302582
0.650238 0.577118 0.287415
0.691345 0.566101 0.269836
0.731934 0.556152 0.251678
0.769135 0.548889 0.236359
0.802246 0.547668 0.225952
0.829926 0.547668 0.224396
0.848083 0.552704 0.230225
0.862488 0.566223 0.247864
0.869263 0.584381 0.272247
0.872192 0.605835 0.300964
0.872711 0.629700 0.332031
0.873444 0.653137 0.361115
0.875641 0.675629 0.386505
0.881927 0.694336 0.404053
0.893860 0.708313 0.411377
0.910767 0.718323 0.410614
0.217072 0.638702 0.167297
0.220734 0.654144 0.151489
0.228241 0.666290 0.141052
0.241577 0.674194 0.137787
0.260101 0.675415 0.142365
0.283142 0.675293 0.157104
0.309692 0.671021 0.179596
0.338562 0.664673 0.206085
0.369843 0.656586 0.235107
0.402130 0.647888 0.262573
0.435272 0.639038 0.286530
0.469025 0.630493 0.304718
0.502045 0.623383 0.312958
0.538086 0.614838 0.312195
0.576996 0.604523 0.302917
0.617767 0.593292 0.288269
0.659576 0.581970 0.270325
0.699554 0.572205 0.252563
0.737488 0.564606 0.236694
0.770721 0.563232 0.226135
0.798340 0.563232 0.224396
0.816956 0.567993 0.229889
0.831696 0.580963 0.246735
0.838440 0.599426 0.271545
0.841431 0.620789 0.300171
0.842377 0.644012 0.330444
0.842682 0.668091 0.360352
0.845123 0.690094 0.385345
0.850983 0.709473 0.403687
0.862732 0.723602 0.411377
0.879486 0.733429 0.410828
0.899719 0.740814 0.403931
0.922394 0.745911 0.392120
0.197235 0.681580 0.141296
0.210449 0.689484 0.137787
0.228821 0.690979 0.142120
0.251770 0.690918 0.156586
0.278229 0.686737 0.178955
0.307037 0.680420 0.205353
0.337860 0.672607 0.233643
0.370575 0.663666 0.261871
0.403656 0.654816 0.285950
0.437439 0.646271 0.304352
0.470428 0.639099 0.312958
0.505829 0.630920 0.312500
0.545227 0.620361 0.303253
0.585938 0.609131 0.288696
0.627777 0.597809 0.270813
0.667816 0.587982 0.252991
0.705322 0.580475 0.237396
0.739197 0.578796 0.226318
0.766998 0.578796 0.224396
0.785828 0.583313 0.229584
0.800720 0.596100 0.246185
0.807861 0.613953 0.270111
0.810669 0.635773 0.299377
0.811646 0.658936 0.329651
0.811920 0.683044 0.359650
0.814301 0.705109 0.384766
0.820221 0.724152 0.402985
0.831604 0.738861 0.411377
0.848267 0.748779 0.410919
0.868439 0.756226 0.404175
0.891052 0.761383 0.392487
0.915375 0.765076 0.376678
0.940857 0.767944 0.356995
0.197540 0.706543 0.141846
0.220398 0.706543 0.156128
0.246460 0.702576 0.177673
0.275543 0.696198 0.204620
0.306335 0.688385 0.232880
0.338989 0.679474 0.261200
0.372070 0.670624 0.285400
0.405396 0.662262 0.303619
0.438843 0.654846 0.312958
0.474121 0.646729 0.312622
0.513458 0.636200 0.303558
0.554169 0.625031 0.289124
0.595306 0.613922 0.271759
0.636078 0.603790 0.253448
0.673645 0.596222 0.237762
0.707245 0.594360 0.226715
0.735626 0.594360 0.224396
0.754700 0.598358 0.228943
0.769745 0.611267 0.245636
0.777008 0.628998 0.269409
0.780273 0.650146 0.297791
0.780914 0.673889 0.328857
0.781555 0.697418 0.358185
0.783478 0.720123 0.384186
0.789307 0.739258 0.402618
0.800476 0.753784 0.411377
0.817078 0.764130 0.411011
0.837006 0.771454 0.404663
0.859711 0.776825 0.392853
0.884003 0.780548 0.377136
0.909241 0.783386 0.358063
0.934845 0.785980 0.335907
0.959534 0.788788 0.312744
0.215027 0.718262 0.177032
0.243683 0.712128 0.203156
0.274780 0.704163 0.232147
0.306946 0.695526 0.259796
0.340454 0.686401 0.284821
0.373810 0.678009 0.303223
0.406799 0.670776 0.312958
0.442413 0.662537 0.312775
0.481049 0.652374 0.304199
0.522339 0.640900 0.289551
0.563538 0.629761 0.272217
0.603699 0.619812 0.254364
0.641998 0.611938 0.238129
0.675690 0.609924 0.226929
0.704254 0.609924 0.224396
0.723572 0.613678 0.228638
0.738892 0.626038 0.244568
0.746155 0.644012 0.268738
0.749512 0.665131 0.297028
0.750183 0.688843 0.328064
0.750824 0.712372 0.357452
0.752960 0.734589 0.382996
0.758362 0.754395 0.402252
0.769379 0.769043 0.411316
0.785858 0.779449 0.411102
0.805725 0.786865 0.404877
0.828156 0.792145 0.393585
0.852631 0.796021 0.377594
0.877838 0.798859 0.358582
0.903473 0.801483 0.336517
0.928192 0.804260 0.313354
0.951416 0.807922 0.289429
0.972778 0.813416 0.264191
0.243225 0.719940 0.231415
0.275391 0.711304 0.259125
0.308411 0.702423 0.283661
0.342224 0.693787 0.302856
0.375214 0.686493 0.312958
0.410706 0.678314 0.312897
0.449280 0.668213 0.304504
0.489899 0.657043 0.290436
0.531708 0.645630 0.272705
0.571960 0.635620 0.254791
0.610321 0.627655 0.238495
0.644165 0.625488 0.227142
0.672607 0.625488 0.224396
0.692444 0.628998 0.228363
0.707916 0.641205 0.244049
0.715302 0.659058 0.268036
0.718719 0.680115 0.296265
0.719849 0.703156 0.326477
0.720062 0.727325 0.356689
0.722168 0.749603 0.382416
0.727448 0.769470 0.401855
0.738281 0.784302 0.411224
0.754608 0.794556 0.411255
0.774445 0.802246 0.405121
0.796814 0.807587 0.393921
0.821259 0.811493 0.378021
0.846466 0.814362 0.359131
0.871857 0.816895 0.337708
0.896820 0.819733 0.313995
0.920135 0.823395 0.290039
0.941498 0.828796 0.264893
0.961914 0.837036 0.235077
0.981873 0.847290 0.200623
0.276825 0.718231 0.283081
0.310150 0.709778 0.302063
0.343658 0.702240 0.312836
0.378479 0.694366 0.312958
0.417511 0.684052 0.304810
0.458069 0.672913 0.290833
0.499268 0.661743 0.273651
0.540192 0.651428 0.255280
0.578125 0.643555 0.239258
0.612610 0.641052 0.227356
0.641235 0.641052 0.224396
0.661316 0.644104 0.227814
0.676880 0.656372 0.243530
0.684753 0.673615 0.266663
0.687958 0.695099 0.295471
0.689117 0.718079 0.325653
0.689697 0.741638 0.355225
0.691345 0.764618 0.381805
0.696716 0.784119 0.401093
0.707214 0.799561 0.411102
0.723389 0.809906 0.411346
0.743042 0.817474 0.405579
0.765472 0.823059 0.394287
0.789642 0.826904 0.378937
0.815063 0.829865 0.359650
0.840454 0.832397 0.338287
0.865234 0.835144 0.315216
0.888794 0.838837 0.290710
0.910095 0.844025 0.266296
0.930664 0.852356 0.235962
0.950623 0.862579 0.201569
0.970184 0.873535 0.164368
0.989380 0.884186 0.125275
0.312073 0.717957 0.312683
0.346771 0.710175 0.312958
0.385132 0.700195 0.305389
0.426270 0.688751 0.291260
0.467468 0.677582 0.274109
0.508453 0.667206 0.255737
0.546448 0.659271 0.239624
0.580658 0.656616 0.227844
0.609833 0.656616 0.224396
0.630188 0.659424 0.227539
0.645752 0.671539 0.242981
0.653870 0.688660 0.265961
0.657562 0.709473 0.293915
0.658386 0.733032 0.324860
0.658966 0.756592 0.354492
0.660553 0.779602 0.381195
0.665802 0.799225 0.400696
0.676178 0.814453 0.410889
0.692200 0.825226 0.411377
0.711761 0.832886 0.405792
0.734161 0.838501 0.394623
0.758270 0.842377 0.379395
0.783417 0.845276 0.360718
