FLSCLRV2.cube
# Copyright: (C) Copyright 2010-2017 by IWLTBAP SAS
# Cannot be resold, shared or otherwise redistributed
# Website: https://luts.iwltbap.com
TITLE "False Color V2 (Rec.709)"
LUT_3D_SIZE 9
0.153534 0.078735 0.159454
0.151093 0.130524 0.220917
0.144989 0.192505 0.289490
0.202515 0.228546 0.312500
0.275391 0.254364 0.315247
0.370758 0.287689 0.326141
0.482208 0.319000 0.332642
0.605743 0.309937 0.320557
0.740021 0.268402 0.285278
0.021820 0.253113 0.287933
0.078003 0.289886 0.312256
0.150055 0.315765 0.315125
0.244873 0.348724 0.325684
0.355621 0.380524 0.332642
0.478760 0.373383 0.321411
0.613678 0.331696 0.286652
0.693878 0.336639 0.235413
0.708374 0.398254 0.158234
0.024689 0.377136 0.315033
0.118988 0.409729 0.325195
0.229401 0.442108 0.332642
0.351807 0.436829 0.322296
0.487244 0.394989 0.287964
0.570282 0.397430 0.237793
0.585419 0.458527 0.160278
0.636169 0.488647 0.147156
0.749847 0.466461 0.246216
0.103180 0.503662 0.332642
0.224884 0.500183 0.323090
0.360413 0.458618 0.289581
0.446564 0.458313 0.240112
0.462463 0.518768 0.162415
0.510742 0.550903 0.145416
0.623169 0.529846 0.242523
0.755890 0.496948 0.312958
0.915192 0.454712 0.265564
0.233856 0.522034 0.290894
0.322784 0.519226 0.242401
0.339569 0.578979 0.164581
0.385406 0.613159 0.143799
0.496490 0.593201 0.238831
0.628937 0.560181 0.312958
0.787384 0.518311 0.267944
0.924164 0.500977 0.224396
0.964111 0.561523 0.304108
0.217072 0.638702 0.167297
0.260101 0.675415 0.142365
0.369843 0.656586 0.235107
0.502045 0.623383 0.312958
0.659576 0.581970 0.270325
0.798340 0.563232 0.224396
0.841431 0.620789 0.300171
0.850983 0.709473 0.403687
0.922394 0.745911 0.392120
0.243225 0.719940 0.231415
0.375214 0.686493 0.312958
0.531708 0.645630 0.272705
0.672607 0.625488 0.224396
0.718719 0.680115 0.296265
0.727448 0.769470 0.401855
0.796814 0.807587 0.393921
0.896820 0.819733 0.313995
0.981873 0.847290 0.200623
0.403839 0.709290 0.275055
0.546783 0.687744 0.224396
0.596008 0.739441 0.292358
0.604187 0.828949 0.399445
0.671295 0.869263 0.395660
0.771179 0.881592 0.317078
0.856812 0.908112 0.205353
0.932831 0.937744 0.056976
1.000000 0.910675 0.000000
0.473206 0.798828 0.288513
0.480835 0.888794 0.397278
0.545807 0.930878 0.397308
0.645477 0.943481 0.320190
0.731720 0.968994 0.210052
0.807983 1.000000 0.061218
0.875488 0.975555 0.000000
0.937744 0.865692 0.000000
1.000000 0.738739 0.000000
0.136200 0.092865 0.238281
0.121826 0.154846 0.311432
0.140259 0.208221 0.364868
0.202515 0.238220 0.376312
0.285400 0.264954 0.380157
0.387390 0.301208 0.393219
0.501709 0.322784 0.394897
0.633911 0.294434 0.371796
0.755951 0.261780 0.331696
0.015747 0.268982 0.363800
0.078003 0.299652 0.376251
0.159973 0.326202 0.379822
0.261322 0.362305 0.392822
0.375458 0.384949 0.394897
0.506866 0.358154 0.372864
0.630432 0.324036 0.333160
0.678925 0.357208 0.268280
0.695160 0.417267 0.203308
0.034515 0.387482 0.379517
0.135254 0.423401 0.392426
0.249176 0.447083 0.394897
0.379852 0.421875 0.373932
0.504791 0.386536 0.334595
0.556305 0.417053 0.271484
0.571442 0.478149 0.204376
0.650513 0.484955 0.238647
0.775330 0.453400 0.345917
0.122925 0.509155 0.394897
0.252808 0.485596 0.374969
0.379089 0.449188 0.336029
0.433319 0.477325 0.274170
0.447815 0.538940 0.205505
0.524475 0.547882 0.235535
0.648499 0.516846 0.342957
0.788513 0.482849 0.368256
0.949463 0.441925 0.303009
0.253296 0.511932 0.337463
0.310303 0.537628 0.276794
0.324249 0.599670 0.206726
0.398193 0.610840 0.231903
0.521667 0.580231 0.339905
0.660889 0.546509 0.369629
0.822144 0.505096 0.304993
0.925903 0.512909 0.301300
0.942230 0.596039 0.410706
0.200806 0.660339 0.208099
0.272247 0.673676 0.228973
0.394836 0.643677 0.336792
0.533264 0.610138 0.370880
0.694763 0.568329 0.307037
0.801392 0.573425 0.299042
0.819672 0.655212 0.406860
0.847229 0.728607 0.473633
0.935974 0.751068 0.429199
0.268005 0.707092 0.333557
0.405090 0.674011 0.372253
0.567322 0.631592 0.309113
0.676880 0.634033 0.296906
0.697144 0.714355 0.402954
0.722656 0.789551 0.473633
0.809937 0.812866 0.432190
0.907501 0.825592 0.340973
0.987671 0.863586 0.206573
0.439850 0.694916 0.311279
0.552368 0.694763 0.294952
0.574585 0.773499 0.399048
0.598145 0.850403 0.473633
0.684143 0.874725 0.434631
0.782227 0.887207 0.344086
0.862671 0.924469 0.211609
0.936218 0.937744 0.078186
1.000000 0.875183 0.062256
0.452087 0.832642 0.395081
0.473633 0.911224 0.473633
0.558380 0.936584 0.437042
0.656891 0.948822 0.347260
0.737579 0.985046 0.217621
0.811432 1.000000 0.081238
0.875488 0.940887 0.062256
0.937744 0.818756 0.062256
1.000000 0.686249 0.062256
0.110199 0.113434 0.325134
0.096375 0.177917 0.399231
0.140259 0.220673 0.434265
0.206543 0.247437 0.439087
0.297729 0.277618 0.446899
0.405975 0.312897 0.457153
0.524017 0.318420 0.451508
0.661133 0.278046 0.420593
0.759827 0.265564 0.375824
0.015747 0.281921 0.433807
0.081268 0.308868 0.439056
0.171997 0.338654 0.446472
0.279755 0.374268 0.457153
0.397278 0.381439 0.452179
0.534363 0.341675 0.421814
0.635315 0.326965 0.377777
0.659729 0.381134 0.301331
0.693329 0.426392 0.262787
0.046265 0.399719 0.446014
0.153259 0.435394 0.457153
0.270569 0.444427 0.452820
0.407593 0.405304 0.423096
0.510803 0.388428 0.379669
0.536957 0.441223 0.303833
0.568420 0.488647 0.262299
0.670441 0.475342 0.340210
0.801910 0.441132 0.433380
0.143890 0.507294 0.453430
0.280762 0.468933 0.424316
0.386292 0.450012 0.381439
0.414185 0.501312 0.306366
0.443909 0.550476 0.262299
0.543945 0.538605 0.336487
0.674622 0.504578 0.431580
0.825500 0.466400 0.409241
0.976074 0.438721 0.349274
0.261780 0.511658 0.383148
0.291443 0.561371 0.308929
0.319397 0.612183 0.262299
0.417511 0.601837 0.332794
0.547791 0.567841 0.429932
0.697601 0.530151 0.411469
0.849701 0.500977 0.350098
0.915680 0.538208 0.397461
0.922028 0.629486 0.511566
0.194885 0.673767 0.262299
0.291107 0.665070 0.329132
0.420959 0.631134 0.428131
0.569733 0.593903 0.413635
0.722809 0.563232 0.351227
0.792572 0.597870 0.393921
0.799042 0.688995 0.508698
0.852570 0.740326 0.529175
0.950409 0.754852 0.460419
0.294128 0.694427 0.426147
0.441833 0.657623 0.415771
0.596222 0.625488 0.352356
0.669434 0.657532 0.390472
0.676117 0.748474 0.505707
0.727325 0.801758 0.530304
0.824646 0.816772 0.463379
0.914856 0.836304 0.362152
0.992462 0.875488 0.213806
0.469513 0.687744 0.353546
0.546204 0.717285 0.387115
0.553589 0.807343 0.501953
0.602112 0.863129 0.531342
0.698853 0.878662 0.466309
0.789734 0.897339 0.366333
0.867554 0.937744 0.218536
0.937744 0.929565 0.124512
1.000000 0.832977 0.124512
0.430756 0.866730 0.498718
0.476959 0.924469 0.532318
0.573059 0.940613 0.469177
0.664581 0.958435 0.370422
0.742645 0.999390 0.223328
0.813232 0.993683 0.124512
0.875488 0.899200 0.124512
0.937744 0.772858 0.124512
1.000000 0.631348 0.124512
0.080872 0.136993 0.415314
0.078949 0.197388 0.480774
0.140259 0.231201 0.499878
0.215881 0.257172 0.502533
0.312775 0.291412 0.514282
0.425171 0.320587 0.519409
0.551483 0.305817 0.504456
0.682922 0.265717 0.467896
0.751526 0.281219 0.411743
0.015747 0.292572 0.499695
0.090515 0.318542 0.502350
0.186798 0.352417 0.513824
0.298920 0.382355 0.519409
0.423950 0.369659 0.505554
0.556732 0.328796 0.469299
0.628235 0.341766 0.414307
0.641785 0.404022 0.339294
0.702881 0.426392 0.342896
0.060883 0.413452 0.513367
0.172668 0.444092 0.519409
0.296936 0.433197 0.506470
0.430511 0.391968 0.470673
0.504883 0.402344 0.416779
0.518646 0.464386 0.341125
0.577209 0.488647 0.340546
0.694244 0.462982 0.443756
0.829254 0.430023 0.499725
0.169952 0.496704 0.507324
0.304230 0.455170 0.472046
0.381622 0.462677 0.419739
0.395599 0.524750 0.343018
0.451599 0.550903 0.338318
0.567505 0.526398 0.440216
0.701996 0.493469 0.499725
0.862610 0.450806 0.445251
0.988159 0.440460 0.413055
0.258087 0.523407 0.422180
0.272583 0.585022 0.345001
0.326050 0.613159 0.336243
0.440765 0.589813 0.436615
0.574799 0.556854 0.499725
0.734924 0.514343 0.447601
0.863647 0.501770 0.412018
0.896149 0.570618 0.502808
0.910400 0.655334 0.596039
0.200378 0.675415 0.333923
0.314056 0.653229 0.432983
0.447662 0.620178 0.499725
0.607178 0.577881 0.449982
0.739136 0.563232 0.411163
0.773560 0.629822 0.498840
0.786438 0.715698 0.594940
0.863678 0.747620 0.572632
0.963379 0.759277 0.488190
0.320587 0.683502 0.499725
0.479401 0.641479 0.452332
0.613831 0.625488 0.411163
0.650940 0.689056 0.494843
0.662567 0.775970 0.593628
0.737793 0.809265 0.575073
0.837830 0.821045 0.491364
0.921326 0.851898 0.371918
0.996399 0.875488 0.227539
0.488373 0.687744 0.411163
0.528320 0.748291 0.490875
0.538818 0.836151 0.592133
0.612183 0.870972 0.577026
0.712280 0.882874 0.494476
0.796295 0.912720 0.376801
0.871582 0.937744 0.231445
0.937744 0.901672 0.186768
1.000000 0.786682 0.186768
0.415192 0.896240 0.590454
0.486603 0.932678 0.578888
0.586639 0.944672 0.497620
0.671143 0.973236 0.382599
0.746704 1.000000 0.235443
0.813232 0.966827 0.186768
0.875488 0.853149 0.186768
0.937744 0.725189 0.186768
1.000000 0.578888 0.186768
0.052185 0.161255 0.505463
0.078003 0.211792 0.554016
0.140259 0.240692 0.563263
0.226166 0.268127 0.567993
0.330200 0.304779 0.581146
0.444794 0.322632 0.580780
0.579590 0.289703 0.554993
0.696259 0.261780 0.514069
0.734528 0.303314 0.444397
0.015747 0.302155 0.563202
0.100616 0.329315 0.567627
0.204102 0.365936 0.580780
0.318451 0.385010 0.581238
0.452606 0.353455 0.556122
0.570984 0.324036 0.515533
0.611725 0.363434 0.447052
0.630951 0.421143 0.387604
0.719330 0.419739 0.438690
0.077667 0.426849 0.580353
0.192169 0.447327 0.581665
0.325623 0.417175 0.557251
0.445648 0.386292 0.516998
0.488892 0.423615 0.449707
0.507050 0.482056 0.388397
0.593079 0.482788 0.435272
0.720551 0.449768 0.541443
0.863678 0.414856 0.548492
0.198608 0.480927 0.558319
0.320160 0.448547 0.518463
0.366028 0.483765 0.452362
0.383148 0.543060 0.389191
0.466919 0.545807 0.431915
0.593719 0.513153 0.538818
0.735870 0.478546 0.550262
0.895721 0.439362 0.483978
0.986511 0.458557 0.498566
0.243134 0.543976 0.455048
0.259369 0.604034 0.390076
0.340820 0.608765 0.428619
0.466400 0.576782 0.535553
0.608124 0.542267 0.551941
0.768616 0.502350 0.485718
0.862823 0.518707 0.495758
0.873810 0.605835 0.609375
0.910614 0.671173 0.659851
0.214722 0.671722 0.425415
0.339539 0.640167 0.532684
0.480408 0.605957 0.553528
0.641449 0.565399 0.487518
0.739044 0.578949 0.493073
0.751190 0.665070 0.605713
0.785736 0.732300 0.660278
0.877594 0.752106 0.608154
0.972473 0.766388 0.514618
0.352722 0.669617 0.555023
0.513672 0.628693 0.489777
0.614624 0.639252 0.490509
0.628601 0.724243 0.602020
0.660919 0.793396 0.660400
0.751770 0.814026 0.610809
0.847290 0.827759 0.518066
0.926788 0.867584 0.378296
0.999512 0.875488 0.253540
0.490112 0.699677 0.488068
0.506042 0.783417 0.598236
0.536133 0.854401 0.660400
0.625977 0.875946 0.613403
0.722107 0.889252 0.521393
0.801819 0.928558 0.383301
0.874725 0.937744 0.256531
0.937744 0.864471 0.249023
1.000000 0.739166 0.249023
0.411438 0.915375 0.660400
0.500183 0.937836 0.615967
0.596924 0.950775 0.524597
0.676849 0.989471 0.388336
0.749969 1.000000 0.259186
0.813232 0.930359 0.249023
0.875488 0.805542 0.249023
0.937744 0.671600 0.249023
1.000000 0.532990 0.249023
0.028168 0.183899 0.592255
0.078003 0.223663 0.622253
0.146759 0.250092 0.626038
0.239258 0.281281 0.635040
0.348785 0.315399 0.643921
0.469147 0.315521 0.635925
0.605347 0.274200 0.603485
0.696930 0.268982 0.555908
0.715118 0.327423 0.478577
0.021454 0.311523 0.625977
0.113464 0.342285 0.634583
0.222565 0.376862 0.643921
0.341827 0.378937 0.636841
0.478729 0.337738 0.604767
0.572937 0.330078 0.558044
0.592285 0.387573 0.480896
0.632935 0.426392 0.452393
0.740845 0.408875 0.541931
0.096375 0.438293 0.643921
0.214996 0.442078 0.637573
0.352051 0.401276 0.606079
0.448547 0.391266 0.560150
0.469482 0.447693 0.483246
0.507782 0.488647 0.451294
0.614258 0.472229 0.538177
0.746521 0.438354 0.623505
0.901886 0.398010 0.586334
0.225342 0.464813 0.607361
0.324036 0.452332 0.562592
0.346680 0.507812 0.485657
0.382660 0.550903 0.450378
0.487671 0.535522 0.534424
0.619720 0.501526 0.622559
0.773346 0.462006 0.589142
0.918854 0.438721 0.535675
0.971252 0.487549 0.599792
0.223938 0.567902 0.488098
0.257629 0.613159 0.449677
0.361145 0.598846 0.530701
0.492920 0.564697 0.621429
0.645477 0.525726 0.591461
0.792786 0.500977 0.535675
0.848419 0.546967 0.596008
0.855621 0.637299 0.706207
0.918396 0.681213 0.710175
0.234650 0.662109 0.526978
0.366119 0.627899 0.620148
0.517609 0.589417 0.593781
0.666595 0.563232 0.535675
0.725861 0.605896 0.591522
0.732422 0.696991 0.703735
0.792969 0.742767 0.711700
0.891876 0.755890 0.638184
0.979584 0.779449 0.530518
0.389709 0.653168 0.596008
0.540283 0.625488 0.536041
0.602875 0.665405 0.587830
0.609283 0.756653 0.701080
0.667572 0.804291 0.713104
0.766144 0.817780 0.641235
0.854492 0.840393 0.535034
0.931335 0.875488 0.386688
1.000000 0.858429 0.311279
0.479889 0.724976 0.584229
0.486237 0.816254 0.698334
0.542053 0.865631 0.714691
0.640381 0.879700 0.644226
0.729401 0.901306 0.539459
0.806458 0.937744 0.391235
0.875488 0.922974 0.311279
0.937744 0.820801 0.311279
1.000000 0.694550 0.311279
0.416779 0.927094 0.715942
0.514618 0.941620 0.647186
0.604279 0.962280 0.543793
0.681580 1.000000 0.395874
0.750977 0.987396 0.311279
0.813232 0.887146 0.311279
0.875488 0.760956 0.311279
0.937744 0.616882 0.311279
1.000000 0.500214 0.311279
0.015747 0.201538 0.671082
0.078003 0.233826 0.687073
0.156219 0.259918 0.689911
0.255219 0.295319 0.702454
0.368134 0.321777 0.706177
0.496796 0.301666 0.688293
0.625214 0.263580 0.650452
0.685272 0.286682 0.590729
0.698853 0.349060 0.519379
0.030823 0.321259 0.689697
0.129211 0.356354 0.701996
0.241852 0.383667 0.706177
0.369751 0.365356 0.689301
0.499237 0.326477 0.651855
0.562164 0.347076 0.593353
0.575470 0.409668 0.520813
0.644440 0.425140 0.537445
0.766052 0.395813 0.644836
0.115601 0.445526 0.706177
0.242706 0.428986 0.690247
0.373230 0.389465 0.653290
0.438995 0.407501 0.595917
0.452393 0.469879 0.522705
0.518585 0.487885 0.534729
0.639252 0.459229 0.641541
0.775635 0.426270 0.684540
0.937897 0.383636 0.622559
0.247131 0.452484 0.654663
0.315735 0.467987 0.598511
0.329163 0.530334 0.524323
0.392822 0.550537 0.532135
0.512482 0.522675 0.638153
0.648193 0.489838 0.685425
0.810364 0.446991 0.624756
0.925903 0.444031 0.604065
0.950134 0.521362 0.706360
0.205994 0.590790 0.526062
0.267090 0.613159 0.529663
0.385223 0.586334 0.634033
0.520813 0.553345 0.686157
0.682770 0.510406 0.626984
0.801392 0.504974 0.602478
0.827606 0.580505 0.702393
0.847168 0.660400 0.784912
0.930695 0.687164 0.750671
0.258453 0.649750 0.630524
0.393463 0.616791 0.686493
0.555145 0.573822 0.629272
0.676880 0.566040 0.601074
0.705078 0.639648 0.698395
0.722870 0.721069 0.784424
0.804962 0.748993 0.752930
0.904205 0.760925 0.664856
0.985626 0.795441 0.538910
0.426819 0.637573 0.632019
0.552368 0.627228 0.599823
0.582520 0.698792 0.694366
0.598694 0.781647 0.783722
0.679260 0.810822 0.755157
0.778595 0.822510 0.668671
0.860626 0.856262 0.543884
0.935089 0.875488 0.402527
1.000000 0.827057 0.373535
0.459961 0.757996 0.690369
0.474609 0.842102 0.782806
0.553558 0.872589 0.757294
0.653076 0.884277 0.671814
0.735596 0.917053 0.548828
0.810303 0.937744 0.406097
0.875488 0.892517 0.373535
0.937744 0.773254 0.373535
1.000000 0.644226 0.373535
0.427887 0.934387 0.759399
0.527588 0.946045 0.674957
0.610565 0.977875 0.553772
0.685425 1.000000 0.410522
0.750977 0.957886 0.373535
0.813232 0.839722 0.373535
0.875488 0.711212 0.373535
0.937744 0.565033 0.373535
1.000000 0.498047 0.373535
0.015747 0.215179 0.742828
0.078461 0.243347 0.750153
0.167114 0.271484 0.755951
0.272797 0.307953 0.768433
0.388763 0.321594 0.765900
0.524597 0.285309 0.738251
0.635315 0.262146 0.696045
0.667084 0.309753 0.623291
0.692932 0.362488 0.573578
0.041504 0.332581 0.755554
0.146667 0.369171 0.768433
0.261871 0.384338 0.766541
0.397705 0.349030 0.739441
0.510803 0.324036 0.697571
0.544312 0.369843 0.625885
0.568420 0.423981 0.573578
0.662415 0.417145 0.636078
0.792175 0.383148 0.737427
0.135406 0.446899 0.767059
0.270782 0.412750 0.740601
0.385773 0.386292 0.699066
0.421539 0.429962 0.628540
0.443909 0.485413 0.573578
0.536072 0.480286 0.632477
0.665314 0.446472 0.735321
0.812012 0.410095 0.729095
0.967560 0.376465 0.664825
0.260468 0.448547 0.700836
0.298737 0.490082 0.631165
0.319397 0.546692 0.573853
0.409760 0.543396 0.628937
0.538452 0.509796 0.733093
0.683502 0.474152 0.731506
0.840790 0.438721 0.666168
0.920959 0.465851 0.695129
0.928802 0.555450 0.809998
0.195160 0.607910 0.574371
0.283539 0.606506 0.625458
0.411621 0.573151 0.730713
0.555695 0.537872 0.733429
0.713898 0.500977 0.667603
0.797577 0.525757 0.691956
0.806061 0.614807 0.806671
0.849884 0.674500 0.844482
0.945038 0.691193 0.783905
0.284760 0.636536 0.728210
0.427887 0.601624 0.735260
0.586945 0.563232 0.669128
0.674286 0.585266 0.688263
0.683319 0.674103 0.803253
0.724823 0.735779 0.845245
0.819214 0.753113 0.786713
0.912323 0.769470 0.689606
0.990753 0.810242 0.545258
0.459930 0.626129 0.670746
0.550720 0.645325 0.685333
0.560669 0.733368 0.799744
0.599823 0.796967 0.845917
0.693420 0.815033 0.789490
0.787170 0.830688 0.693420
0.865845 0.871307 0.550201
0.937744 0.874054 0.435791
1.000000 0.786438 0.435791
0.438019 0.792603 0.796143
0.474823 0.857941 0.846619
0.567596 0.876953 0.792206
0.662018 0.891968 0.697113
0.740875 0.932373 0.555115
0.813232 0.937744 0.435791
0.875488 0.853271 0.435791
0.937744 0.727051 0.435791
1.000000 0.588684 0.435791
0.441803 0.938873 0.794922
0.536835 0.953308 0.700684
0.615936 0.993378 0.560089
0.688477 1.000000 0.437958
0.750977 0.919312 0.435791
0.813232 0.793335 0.435791
0.875488 0.655853 0.435791
0.937744 0.522827 0.435791
1.000000 0.498047 0.435791
0.015747 0.226685 0.810028
0.086945 0.252625 0.813080
0.181244 0.285217 0.823242
0.291656 0.317596 0.830688
0.414062 0.312317 0.820343
0.549133 0.270721 0.786285
0.632538 0.272919 0.735840
0.647675 0.334015 0.658325
0.698425 0.364136 0.645203
0.055389 0.346252 0.822784
0.165436 0.379150 0.830688
0.287140 0.375671 0.821136
0.422668 0.334106 0.787628
0.508820 0.333801 0.738159
0.524719 0.394257 0.660461
0.572998 0.426392 0.643463
0.685425 0.405334 0.740570
0.818146 0.372437 0.811005
0.160217 0.439026 0.821930
0.296112 0.397522 0.788940
0.385040 0.394714 0.740448
0.402161 0.454041 0.663086
0.447662 0.488647 0.641846
0.558746 0.468689 0.736877
0.691193 0.435669 0.811005
0.849640 0.393799 0.765991
0.986206 0.376465 0.722443
0.261139 0.455750 0.742676
0.279327 0.514191 0.665344
0.322357 0.550903 0.640411
0.432098 0.532074 0.733154
0.564301 0.498871 0.811005
0.721832 0.457458 0.768372
0.860596 0.438721 0.722443
0.903687 0.496277 0.798218
0.913239 0.584961 0.901733
0.197144 0.613159 0.639160
0.305054 0.595642 0.728699
0.437469 0.561981 0.811005
0.593964 0.521118 0.770752
0.734863 0.500977 0.722443
0.780975 0.555603 0.794312
0.789886 0.644501 0.899536
0.859070 0.683075 0.891968
0.959076 0.695221 0.812042
0.310730 0.625122 0.810272
0.466095 0.584778 0.773102
0.609039 0.563232 0.722443
0.658264 0.614929 0.790405
0.666443 0.704437 0.897491
0.733551 0.744751 0.893707
0.833435 0.757080 0.815125
0.919067 0.783600 0.703400
0.995087 0.813232 0.555023
0.483063 0.625488 0.722443
0.535461 0.674316 0.786560
0.543091 0.764282 0.895325
0.608063 0.806366 0.895355
0.707520 0.818878 0.818848
0.793976 0.844482 0.708099
0.870239 0.875488 0.559265
0.937744 0.851044 0.498047
1.000000 0.741180 0.498047
0.419830 0.824066 0.892975
0.482605 0.867981 0.896942
0.581818 0.880768 0.821899
0.668884 0.905334 0.712708
0.745361 0.937744 0.563629
0.813232 0.915863 0.498047
0.875488 0.807617 0.498047
0.937744 0.681763 0.498047
1.000000 0.534790 0.498047
0.456085 0.942657 0.824951
0.543793 0.966217 0.717285
0.620422 1.000000 0.568939
0.688721 0.980591 0.498047
0.750977 0.873993 0.498047
0.813232 0.748352 0.498047
0.875488 0.601715 0.498047
0.937744 0.498047 0.498047
1.000000 0.498047 0.498047
