FLSCLRV2.cube
# Copyright: (C) Copyright 2010-2017 by IWLTBAP SAS
# Cannot be resold, shared or otherwise redistributed
# Website: https://luts.iwltbap.com
TITLE "False Color V2 (Rec.709)"
LUT_3D_SIZE 5
0.153534 0.078735 0.159454
0.144989 0.192505 0.289490
0.275391 0.254364 0.315247
0.482208 0.319000 0.332642
0.740021 0.268402 0.285278
0.024689 0.377136 0.315033
0.229401 0.442108 0.332642
0.487244 0.394989 0.287964
0.585419 0.458527 0.160278
0.749847 0.466461 0.246216
0.233856 0.522034 0.290894
0.339569 0.578979 0.164581
0.496490 0.593201 0.238831
0.787384 0.518311 0.267944
0.964111 0.561523 0.304108
0.243225 0.719940 0.231415
0.531708 0.645630 0.272705
0.718719 0.680115 0.296265
0.796814 0.807587 0.393921
0.981873 0.847290 0.200623
0.473206 0.798828 0.288513
0.545807 0.930878 0.397308
0.731720 0.968994 0.210052
0.875488 0.975555 0.000000
1.000000 0.738739 0.000000
0.110199 0.113434 0.325134
0.140259 0.220673 0.434265
0.297729 0.277618 0.446899
0.524017 0.318420 0.451508
0.759827 0.265564 0.375824
0.046265 0.399719 0.446014
0.270569 0.444427 0.452820
0.510803 0.388428 0.379669
0.568420 0.488647 0.262299
0.801910 0.441132 0.433380
0.261780 0.511658 0.383148
0.319397 0.612183 0.262299
0.547791 0.567841 0.429932
0.849701 0.500977 0.350098
0.922028 0.629486 0.511566
0.294128 0.694427 0.426147
0.596222 0.625488 0.352356
0.676117 0.748474 0.505707
0.824646 0.816772 0.463379
0.992462 0.875488 0.213806
0.430756 0.866730 0.498718
0.573059 0.940613 0.469177
0.742645 0.999390 0.223328
0.875488 0.899200 0.124512
1.000000 0.631348 0.124512
0.052185 0.161255 0.505463
0.140259 0.240692 0.563263
0.330200 0.304779 0.581146
0.579590 0.289703 0.554993
0.734528 0.303314 0.444397
0.077667 0.426849 0.580353
0.325623 0.417175 0.557251
0.488892 0.423615 0.449707
0.593079 0.482788 0.435272
0.863678 0.414856 0.548492
0.243134 0.543976 0.455048
0.340820 0.608765 0.428619
0.608124 0.542267 0.551941
0.862823 0.518707 0.495758
0.910614 0.671173 0.659851
0.352722 0.669617 0.555023
0.614624 0.639252 0.490509
0.660919 0.793396 0.660400
0.847290 0.827759 0.518066
0.999512 0.875488 0.253540
0.411438 0.915375 0.660400
0.596924 0.950775 0.524597
0.749969 1.000000 0.259186
0.875488 0.805542 0.249023
1.000000 0.532990 0.249023
0.015747 0.201538 0.671082
0.156219 0.259918 0.689911
0.368134 0.321777 0.706177
0.625214 0.263580 0.650452
0.698853 0.349060 0.519379
0.115601 0.445526 0.706177
0.373230 0.389465 0.653290
0.452393 0.469879 0.522705
0.639252 0.459229 0.641541
0.937897 0.383636 0.622559
0.205994 0.590790 0.526062
0.385223 0.586334 0.634033
0.682770 0.510406 0.626984
0.827606 0.580505 0.702393
0.930695 0.687164 0.750671
0.426819 0.637573 0.632019
0.582520 0.698792 0.694366
0.679260 0.810822 0.755157
0.860626 0.856262 0.543884
1.000000 0.827057 0.373535
0.427887 0.934387 0.759399
0.610565 0.977875 0.553772
0.750977 0.957886 0.373535
0.875488 0.711212 0.373535
1.000000 0.498047 0.373535
0.015747 0.226685 0.810028
0.181244 0.285217 0.823242
0.414062 0.312317 0.820343
0.632538 0.272919 0.735840
0.698425 0.364136 0.645203
0.160217 0.439026 0.821930
0.385040 0.394714 0.740448
0.447662 0.488647 0.641846
0.691193 0.435669 0.811005
0.986206 0.376465 0.722443
0.197144 0.613159 0.639160
0.437469 0.561981 0.811005
0.734863 0.500977 0.722443
0.789886 0.644501 0.899536
0.959076 0.695221 0.812042
0.483063 0.625488 0.722443
0.543091 0.764282 0.895325
0.707520 0.818878 0.818848
0.870239 0.875488 0.559265
1.000000 0.741180 0.498047
0.456085 0.942657 0.824951
0.620422 1.000000 0.568939
0.750977 0.873993 0.498047
0.875488 0.601715 0.498047
1.000000 0.498047 0.498047
